X:6571
T:The Boys of Malin
O:england
C:Trad
R:Reel
M:4/4
K:A
L:1/8
ABce a2 ae | f2 fa fece | f2 fe cBAF | EFAB cBAF | E2 EF ABce |
f2 af fece | f2 ec dBcA | B2 AB cAA2 :||: ABce fece | fA (3AAA fAeA |
fA (3AAA fA eA | aAfA eAce | f2 fe cBAF | E2 EF ABce|f2 ec dBcA|B2 AB cA
A2 :|


